ui/StatusQ/src/assets/img/icons/refresh.svg

<svg fill="none" height="24" viewBox="0 0 24 24" width="24" xmlns="http://www.w3.org/2000/svg"><path d="m12 6.25c4.2802 0 7.75 3.46979 7.75 7.75 0 4.2802-3.4698 7.75-7.75 7.75-4.28021 0-7.75-3.4698-7.75-7.75 0-.4142.33579-.75.75-.75s.75.3358.75.75c0 3.4518 2.79822 6.25 6.25 6.25 3.4518 0 6.25-2.7982 6.25-6.25s-2.7982-6.25-6.25-6.25h-.9822c-.4455 0-.6686.53857-.3536.85355l1.8661 1.86615c.2929.2929.2929.7677 0 1.0606s-.7677.2929-1.0606 0l-4.00003-3.99997c-.29289-.29289-.29289-.76777 0-1.06066l4.00003-4c.2929-.29289.7677-.29289 1.0606 0s.2929.76777 0 1.06066l-1.8661 1.86612c-.315.31498-.0919.85355.3536.85355z" fill="#000"/></svg>

<svg width="24" height="24" viewBox="0 0 24 24" fill="none" xmlns="http://www.w3.org/2000/svg">
<path d="M12 6.25C16.2802 6.25 19.75 9.71979 19.75 14C19.75 18.2802 16.2802 21.75 12 21.75C7.71979 21.75 4.25 18.2802 4.25 14C4.25 13.5858 4.58579 13.25 5 13.25C5.41421 13.25 5.75 13.5858 5.75 14C5.75 17.4518 8.54822 20.25 12 20.25C15.4518 20.25 18.25 17.4518 18.25 14C18.25 10.5482 15.4518 7.75 12 7.75H11.0178C10.5723 7.75 10.3492 8.28857 10.6642 8.60355L12.5303 10.4697C12.8232 10.7626 12.8232 11.2374 12.5303 11.5303C12.2374 11.8232 11.7626 11.8232 11.4697 11.5303L7.46967 7.53033C7.17678 7.23744 7.17678 6.76256 7.46967 6.46967L11.4697 2.46967C11.7626 2.17678 12.2374 2.17678 12.5303 2.46967C12.8232 2.76256 12.8232 3.23744 12.5303 3.53033L10.6642 5.39645C10.3492 5.71143 10.5723 6.25 11.0178 6.25H12Z" fill="black"/>
</svg>
